X: 36043
T: Scarce O' Tatties
R: jig
M: 6/8
K: Adorian
|:e|"Am"A2e e>fg|"G"e>dB d>BG|"Am"A2e e>fg|"G"e>dB "Am"A2e|
"Am"a>ba "C"g>ag|"D"f>gf "Am"e>dB|"Am"A2e e>fg|"G"e>dB "Am"A2:|
|:e|"Am"a>eg a2f|"G"g2f "Am"e2A|"Am"a>eg a2f|"D"g2f "Em"e3|
"Am"e>ee A>AA|"D"d>ef f2e|"Am"A2e e>fg|"G"e>dB "Am"A2:|

